icon-themes/sifr_svg/cmd/lc_square_rounded.svg

<svg viewBox="0 0 24 24" xmlns="http://www.w3.org/2000/svg"><g fill="#555753"><path d="m4 2c-1.108 0-2 .892-2 2v16c0 1.108.892 2 2 2h16c1.108 0 2-.892 2-2v-16c0-1.108-.892-2-2-2zm0 2h16v16h-16z"/><path d="m4 4v16h16v-16z" opacity=".35"/></g></svg>

<svg xmlns="http://www.w3.org/2000/svg" viewBox="0 0 24 24">
  <path
     style="fill:#555753"
     d="M 4 2 C 2.892 2 2 2.892 2 4 L 2 20 C 2 21.108 2.892 22 4 22 L 20 22 C 21.108 22 22 21.108 22 20 L 22 4 C 22 2.892 21.108 2 20 2 L 4 2 z M 4 4 L 20 4 L 20 20 L 4 20 L 4 4 z "
     />
  <path
     style="opacity:0.35;fill:#555753"
     d="M 4,4 V 20 H 20 V 4 Z"
     />
</svg>
